static/svg/logos/logo-cake.svg

<?xml version="1.0" encoding="UTF-8"?>
<svg width="299px" height="60px" viewBox="0 0 299 60" version="1.1" xmlns="http://www.w3.org/2000/svg" xmlns:xlink="http://www.w3.org/1999/xlink">
    <!-- Generator: Sketch 58 (84663) - https://sketch.com -->
    <title>logo-cake</title>
    <desc>Created with Sketch.</desc>
    <g id="Website" stroke="none" stroke-width="1" fill="none" fill-rule="evenodd">
        <g id="01-home-02" transform="translate(-120.000000, -1462.000000)" fill="#5B10FF">
            <g id="Group-25" transform="translate(10.000000, 1252.000000)">
                <g id="Group-24" transform="translate(110.000000, 0.000000)">
                    <g id="Group-16" transform="translate(0.000000, 210.000000)">
                        <path d="M105.064517,0.00475454194 C110.101969,0.00475454194 114.416641,1.13888674 117.885753,3.3746811 C121.360656,5.61743332 124.110463,8.9514109 126.056409,13.2838423 C126.530154,14.3391187 126.056409,15.5845767 125.004672,16.0577116 C124.732471,16.1806339 124.442896,16.2444144 124.146371,16.2444144 C123.32166,16.2444144 122.569923,15.7573637 122.231699,15.0070738 C120.599653,11.373908 118.437104,8.72180131 115.616641,6.90347893 C112.832085,5.10950908 109.281892,4.20150754 105.064517,4.20150754 C101.894247,4.20150754 99.0147104,4.75001933 96.5081467,5.83428682 C94.0050579,6.91275609 91.9432819,8.46436026 90.2069884,10.5725937 C88.4533205,12.6970622 87.09,15.3654039 86.1529344,18.5045613 C85.1950193,21.7156165 84.7085328,25.5146115 84.7085328,29.7971782 C84.7085328,38.2475068 86.5537066,44.722961 90.1919305,49.0449555 C93.7930888,53.3159258 98.6579537,55.3928489 105.064517,55.3928489 C109.265676,55.3928489 112.841351,54.4152687 115.693089,52.4879397 C118.615483,50.5084267 120.832471,47.8192114 122.473784,44.2614225 C122.815483,43.5204097 123.562587,43.040317 124.376873,43.040317 C124.680347,43.040317 124.975714,43.1064167 125.254865,43.2374565 C125.763359,43.470545 126.150232,43.8903363 126.34251,44.4179745 C126.535946,44.9432934 126.513938,45.5115191 126.279961,46.020603 C124.336332,50.233591 121.563359,53.5814843 118.039807,55.9645535 C114.483822,58.369656 110.119344,59.5907615 105.064517,59.5907615 C97.4533205,59.5907615 91.3710811,56.9514109 86.9880695,51.7515655 C82.6942471,46.6502899 80.5166409,39.2621956 80.5166409,29.7971782 C80.5166409,25.1110553 81.0622008,20.9096637 82.1347876,17.3043293 C83.2340154,13.6236181 84.8625869,10.4589486 86.9753282,7.89961345 C89.1193436,5.29969076 91.7683784,3.30626208 94.8483012,1.97730963 C97.8818919,0.668071125 101.31973,0.00475454194 105.064517,0.00475454194 Z M239.154208,0.0046385775 C239.647645,0.0046385775 240.108649,0.169308079 240.486255,0.48241206 C241.333552,1.18417085 241.487771,2.41654523 240.87145,3.30360084 L240.767722,3.44066486 L223.094363,24.8465404 L222.539537,25.5168148 L223.030656,26.236954 L243.479305,56.3134905 C243.794363,56.775029 243.909035,57.3339776 243.805946,57.8824894 C243.701699,58.4356397 243.388958,58.9110939 242.92332,59.2276768 C242.576988,59.4654039 242.171583,59.5906455 241.748803,59.5906455 C241.110676,59.5906455 240.51148,59.3012418 240.114486,58.8117564 L240.011351,58.6733668 L220.626023,30.1623502 L219.759614,28.8844221 L218.775058,30.0765365 L209.429884,41.3958253 L209.164633,41.7182064 L209.164633,57.4928489 C209.164633,58.6478547 208.224093,59.5906455 207.065792,59.5906455 C205.960067,59.5906455 205.05252,58.7280543 204.975693,57.6422383 L204.970425,57.4928489 L204.970425,2.10127561 C204.970425,0.943950522 205.909807,0.0046385775 207.065792,0.0046385775 C208.173732,0.0046385775 209.082435,0.864046859 209.159359,1.95161582 L209.164633,2.10127561 L209.164633,35.1291071 L211.217143,32.6439892 L237.536062,0.765365288 C237.934517,0.280633939 238.522934,0.0046385775 239.154208,0.0046385775 Z M27.6684556,0.000347893312 C44.1035907,0.000347893312 57.427529,13.3408968 57.427529,29.7950908 C57.427529,46.2492849 44.1035907,59.5898338 27.6684556,59.5898338 C18.0730888,59.5898338 9.54915058,55.0382296 4.10861004,47.9806339 C4.24606178,47.9257441 4.38402831,47.8713697 4.52148005,47.8109823 L4.72714286,47.7150754 L8.20088803,45.9756088 C12.9406564,51.7216467 19.9877606,55.1310012 27.6684556,55.1310012 C41.6213514,55.1310012 52.9727027,43.7653266 52.9727027,29.7950908 C52.9727027,15.824855 41.6213514,4.46149981 27.6684556,4.46149981 C20.1406337,4.46149981 13.2173461,7.73623565 8.48234922,13.281462 L8.20088803,13.6168922 L4.72482625,11.8774256 C4.52212355,11.7753769 4.31478764,11.6942018 4.10861004,11.6095477 C9.55146718,4.55195207 18.0754054,0.000347893312 27.6684556,0.000347893312 Z M261.279846,0.001855431 L296.784093,0.001855431 C297.937761,0.001855431 298.879459,0.944646308 298.879459,2.1019714 C298.879459,3.208978 298.017867,4.117578 296.933309,4.19449406 L296.784093,4.19976807 L263.376371,4.19976807 L263.376371,27.6257441 L293.958996,27.6257441 C295.114981,27.6257441 296.055521,28.5673753 296.055521,29.7247004 C296.055521,30.831707 295.194989,31.742429 294.108495,31.8195296 L293.958996,31.8248164 L263.376371,31.8248164 L263.376371,55.3934287 L296.784093,55.3934287 C297.937761,55.3934287 298.879459,56.3362196 298.879459,57.4912254 C298.879459,58.598232 298.017867,59.507893 296.933309,59.5849013 L296.784093,59.5901817 L261.279846,59.5901817 C260.174121,59.5901817 259.264454,58.7286514 259.187443,57.6408979 L259.182162,57.4912254 L259.182162,2.1019714 C259.182162,0.994964791 260.043754,0.0842427931 261.13034,0.00714221606 L261.279846,0.001855431 L296.784093,0.001855431 Z M168.260734,0.00046385775 C169.242973,0.00046385775 170.114015,0.627831465 170.429073,1.55554697 L189.061506,56.559799 C189.469228,57.7577116 188.827529,59.0599923 187.631004,59.4658678 C187.386602,59.5493622 187.138726,59.5899497 186.894324,59.5899497 C185.941042,59.5899497 185.051467,58.9880943 184.727143,58.0325474 L166.619421,4.58453807 L164.617876,4.58453807 L153.810927,36.4817163 L170.565753,36.4817163 L172.11556,41.0657905 L152.258803,41.0657905 L146.510154,58.0325474 C146.186988,58.9880943 145.296255,59.5899497 144.341815,59.5899497 C144.098571,59.5899497 143.850695,59.5493622 143.606293,59.4658678 C142.409768,59.0599923 141.768069,57.7577116 142.174633,56.559799 L160.809382,1.55554697 C161.123282,0.627831465 161.994324,0.00046385775 162.976564,0.00046385775 L168.260734,0.00046385775 Z M2.58245238,15.796016 L2.73173745,15.8662543 L27.826332,28.4275222 C28.5792278,28.8055663 28.9556757,29.3018941 28.9556757,29.7947429 C28.9556757,30.2550326 28.6349154,30.7113698 27.9933947,31.0761938 L27.826332,31.1654426 L2.73173745,43.7267105 C1.27949807,44.4531117 0.0826975547,43.7664682 0.00452445302,42.1999588 L0.000463320463,42.0347893 L0.000463320463,17.5581755 C0.000463320463,15.9304986 1.14885586,15.1653859 2.58245238,15.796016 Z" id="logo-cake"></path>
                    </g>
                </g>
            </g>
        </g>
    </g>
</svg>

<svg width="299" height="60" xmlns="http://www.w3.org/2000/svg"><path d="M105.065.005c5.037 0 9.352 1.134 12.82 3.37 3.476 2.242 6.225 5.576 8.171 9.909a2.103 2.103 0 0 1-1.91 2.96 2.105 2.105 0 0 1-1.914-1.237c-1.632-3.633-3.795-6.285-6.615-8.104-2.785-1.793-6.335-2.701-10.552-2.701-3.17 0-6.05.548-8.557 1.632a16.378 16.378 0 0 0-6.301 4.739c-1.754 2.124-3.117 4.792-4.054 7.932-.958 3.21-1.444 7.01-1.444 11.292 0 8.45 1.845 14.926 5.483 19.248 3.601 4.27 8.466 6.348 14.873 6.348 4.2 0 7.776-.978 10.628-2.905 2.922-1.98 5.14-4.669 6.78-8.227a2.104 2.104 0 0 1 1.904-1.22c.303 0 .599.065.878.196.508.234.895.653 1.088 1.181a2.085 2.085 0 0 1-.063 1.603c-1.944 4.213-4.717 7.56-8.24 9.944-3.556 2.405-7.92 3.626-12.975 3.626-7.612 0-13.694-2.64-18.077-7.84-4.294-5.1-6.471-12.489-6.471-21.954 0-4.686.545-8.887 1.618-12.493 1.099-3.68 2.728-6.845 4.84-9.404a20.794 20.794 0 0 1 7.873-5.923C97.882.668 101.32.005 105.065.005zm134.09 0c.493 0 .954.164 1.331.477a2.108 2.108 0 0 1 .385 2.822l-.103.137-17.674 21.406-.554.67.49.72 20.45 30.076c.314.462.429 1.021.326 1.57a2.079 2.079 0 0 1-.883 1.345 2.064 2.064 0 0 1-1.174.363c-.638 0-1.238-.29-1.635-.78l-.103-.138-19.385-28.51-.866-1.279-.985 1.193-9.345 11.319-.265.322v15.775c0 1.155-.94 2.098-2.1 2.098a2.1 2.1 0 0 1-2.09-1.949l-.005-.15V2.103a2.097 2.097 0 0 1 4.19-.15l.005.15v33.027l2.052-2.485L237.537.765c.398-.484.986-.76 1.617-.76zM27.667 0c16.436 0 29.76 13.34 29.76 29.795 0 16.454-13.324 29.795-29.76 29.795-9.595 0-18.119-4.552-23.56-11.61.138-.054.276-.109.413-.169l.206-.096 3.474-1.74c4.74 5.747 11.787 9.156 19.467 9.156 13.953 0 25.305-11.366 25.305-25.336 0-13.97-11.352-25.334-25.305-25.334-7.527 0-14.45 3.275-19.186 8.82l-.281.336-3.476-1.74c-.203-.102-.41-.183-.616-.267C9.55 4.552 18.075 0 27.669 0zM261.28.002h35.504a2.1 2.1 0 1 1 .15 4.193l-.15.005h-33.408v23.426h30.583a2.1 2.1 0 0 1 .15 4.194l-.15.005h-30.583v23.568h33.408c1.154 0 2.095.943 2.095 2.098a2.101 2.101 0 0 1-1.946 2.094l-.149.005H261.28a2.102 2.102 0 0 1-2.093-1.95l-.005-.149V2.102c0-1.107.862-2.018 1.948-2.095l.15-.005h35.504zM168.26 0c.983 0 1.854.628 2.17 1.556l18.632 55.004a2.29 2.29 0 0 1-2.168 3.03 2.291 2.291 0 0 1-2.167-1.557L166.62 4.585h-2.001L153.81 36.482h16.755l1.55 4.584h-19.857l-5.749 16.967a2.29 2.29 0 0 1-2.168 1.557 2.292 2.292 0 0 1-2.167-3.03l18.634-55.004A2.289 2.289 0 0 1 162.977 0h5.284zM2.583 15.796l.15.07 25.094 12.562c.753.378 1.13.874 1.13 1.367 0 .46-.321.916-.963 1.281l-.167.09-25.094 12.56c-1.453.727-2.65.04-2.727-1.526L0 42.035V17.558c0-1.628 1.149-2.393 2.582-1.762z" fill="#5B10FF" fill-rule="evenodd"/></svg>
